src/assets/icons/analysisAI.svg

<svg width="78" height="90" viewBox="0 0 78 90" fill="none" xmlns="http://www.w3.org/2000/svg">
<g clip-path="url(#clip0_1241_1468)">
<path d="M37.454 0.231331C34.2968 1.38635 32.726 5.2189 34.0479 8.50894C34.5612 9.76896 35.6654 11.029 36.7075 11.554L37.4073 11.904V15.1765L37.3918 18.4491L33.7369 20.8116C31.715 22.1066 29.9887 23.1916 29.8954 23.2266C29.7865 23.2441 28.6978 21.3016 27.4691 18.9041C26.2405 16.489 25.1051 14.389 24.934 14.214C24.6385 13.9165 24.1253 13.899 17.9042 13.8465L11.2009 13.794L10.9054 13.0065C10.7499 12.569 10.2989 11.834 9.89449 11.379C7.25052 8.33394 2.81798 9.19145 1.15383 13.0765C0.62504 14.284 0.562829 16.384 1.01386 17.6966C1.48044 19.0966 2.60024 20.4441 3.84446 21.0916C4.66876 21.5116 5.02647 21.5991 6.06851 21.5991C7.17276 21.5991 7.43715 21.5291 8.35477 21.0216C9.50567 20.3916 10.4388 19.3416 10.9521 18.0991L11.2787 17.3116H17.1732H23.0677L25.0429 21.1791C26.1782 23.3666 26.9714 25.0992 26.8937 25.1867C26.8159 25.2742 24.9807 26.4817 22.8188 27.8817L18.8995 30.4367H15.5713H12.2274L11.0143 28.0217C9.67675 25.3442 9.03909 24.4866 8.41698 24.4866C7.49936 24.4866 6.76838 25.3092 6.76838 26.3417C6.76838 26.9192 10.0034 33.2018 10.4855 33.5693C10.8121 33.7968 11.4653 33.8668 14.3426 33.9018L17.8109 33.9543V38.5043V43.0369H14.1871H10.5477L10.2522 42.2844C9.55233 40.5344 7.686 38.9943 5.91298 38.7493C3.59562 38.4168 1.2316 40.0794 0.28288 42.7044C-0.0903869 43.7369 -0.0903869 45.8369 0.28288 46.8694C1.2316 49.4945 3.59562 51.157 5.91298 50.8245C7.686 50.5795 9.55233 49.0395 10.2522 47.2719L10.5477 46.5369H14.1871H17.8109V51.087V55.6371L14.5914 55.6546C12.5074 55.6546 11.1543 55.7246 10.8121 55.8646C10.3144 56.0571 10.0967 56.4071 8.51029 59.4871C6.95502 62.4971 6.75283 62.9697 6.8306 63.5122C6.92391 64.2472 7.686 65.0872 8.26145 65.0872C9.08575 65.0872 9.45901 64.6497 10.7188 62.1646C11.4031 60.8346 12.0563 59.6096 12.1807 59.4346C12.3985 59.1721 12.7562 59.1371 15.649 59.1371H18.8995L22.8188 61.6921C24.9807 63.0922 26.8159 64.2997 26.8937 64.3872C26.9714 64.4747 26.1782 66.2072 25.0429 68.3947L23.0677 72.2623H17.1732H11.2787L10.9521 71.4748C9.78562 68.6922 7.06389 67.3272 4.41992 68.2372C3.44009 68.5697 3.16014 68.7622 2.33585 69.6897C1.04497 71.1423 0.640593 72.2973 0.73391 74.2748C0.811674 75.9023 1.15383 76.8823 2.11811 78.1074C3.59562 79.9974 6.33291 80.5574 8.44808 79.4024C9.3968 78.8949 10.5322 77.5648 10.9054 76.5673L11.2009 75.7798L17.9042 75.7273C24.1253 75.6748 24.6385 75.6573 24.934 75.3598C25.1051 75.1848 26.2405 73.0848 27.4691 70.6698C28.6978 68.2722 29.7865 66.3297 29.8954 66.3472C29.9887 66.3822 31.715 67.4672 33.7369 68.7622L37.3918 71.1248L37.4073 74.3973V77.6698L36.7075 78.0198C36.3342 78.2124 35.681 78.7199 35.2611 79.1574C32.5238 82.0449 33.2859 87.2075 36.7075 89.01C37.5007 89.43 37.8428 89.5 38.9626 89.5C40.0669 89.5 40.4246 89.43 41.1867 89.0275C44.6394 87.2075 45.417 82.0624 42.6642 79.1574C42.2443 78.7199 41.591 78.2124 41.2178 78.0198L40.5179 77.6698V74.3973L40.5334 71.1248L44.2039 68.7622C46.2258 67.4672 47.9521 66.3822 48.0454 66.3472C48.1388 66.3297 49.2274 68.2722 50.4561 70.6698C51.6848 73.0848 52.8201 75.1848 52.9912 75.3598C53.2867 75.6573 53.8 75.6748 60.0211 75.7273L66.7399 75.7798L66.9265 76.3573C67.3931 77.7923 68.8395 79.2799 70.2859 79.7874C71.2346 80.1374 72.8054 80.0499 73.8475 79.6124C74.9517 79.1399 76.2271 77.8098 76.7558 76.5498C77.3002 75.2898 77.3624 73.2248 76.9269 71.8948C76.5537 70.7748 75.6049 69.4622 74.734 68.8497C72.09 66.9772 68.4351 68.1322 67.0665 71.2998L66.631 72.2623H60.752H54.8575L52.8823 68.3947C51.7625 66.2247 50.9538 64.4747 51.0316 64.3872C51.1093 64.3172 52.9446 63.0922 55.1064 61.6921L59.0568 59.1371L62.3384 59.1721L65.6201 59.2246L66.9732 61.8496C68.5129 64.8072 68.9173 65.2622 69.8815 64.9822C70.5503 64.7897 71.0635 64.0547 71.048 63.2847C71.0324 62.6371 68.2951 57.1071 67.5486 56.2496L67.1131 55.7246L63.6138 55.6721L60.1144 55.6196V51.0695V46.5369H63.7382H67.3775L67.673 47.2719C68.3729 49.0395 70.2392 50.5795 72.0123 50.8245C73.7386 51.0695 75.9315 49.967 76.9269 48.357C77.5024 47.4119 78.0001 45.7494 78.0001 44.7869C78.0001 43.8244 77.5024 42.1619 76.9269 41.2169C75.9315 39.6068 73.7386 38.5043 72.0123 38.7493C70.2392 38.9943 68.3729 40.5344 67.673 42.2844L67.3775 43.0369H63.7382H60.1144V38.4868V33.9368L63.3494 33.9193C65.4179 33.9193 66.771 33.8493 67.1131 33.7093C67.5953 33.5168 67.8286 33.1493 69.4149 30.0867C70.9391 27.1117 71.1568 26.6042 71.0946 26.0792C70.9236 24.8717 69.8038 24.1891 68.8861 24.7142C68.5595 24.9067 68.0774 25.6767 67.2064 27.4092C66.5221 28.7392 65.8689 29.9642 65.7445 30.1217C65.5267 30.4017 65.169 30.4367 62.2762 30.4367H59.0412L55.1064 27.8817C52.9446 26.4817 51.1093 25.2567 51.0316 25.1867C50.9538 25.0992 51.7625 23.3491 52.8823 21.1791L54.8575 17.3116H60.752H66.631L67.0665 18.2741C68.4351 21.4416 72.09 22.5966 74.734 20.7241C75.6049 20.1116 76.5537 18.7991 76.9269 17.6791C77.3624 16.349 77.3002 14.284 76.7558 13.024C76.1959 11.729 74.9828 10.4515 73.8786 9.97896C72.7588 9.50645 71.0946 9.45395 70.0993 9.85646C68.684 10.434 67.3931 11.799 66.9265 13.2165L66.7399 13.794L60.0211 13.8465C53.8 13.899 53.2867 13.9165 52.9912 14.214C52.8201 14.389 51.6848 16.489 50.4561 18.9041C49.2274 21.3016 48.1388 23.2441 48.0454 23.2266C47.9521 23.1916 46.2258 22.1066 44.2039 20.8116L40.5334 18.4491L40.5179 15.194V11.9215L41.3577 11.4665C42.3842 10.889 43.3641 9.73396 43.9084 8.42144C44.7482 6.35641 44.3283 3.66138 42.8819 1.92885C41.5444 0.318832 39.1959 -0.416178 37.454 0.231331ZM40.0669 3.87138C40.689 4.25638 41.2955 5.3414 41.2955 6.04141C41.2955 6.21641 41.1556 6.70642 40.9845 7.10892C40.0669 9.38395 37.1274 8.91144 36.7075 6.40891C36.4742 5.06139 37.6717 3.50387 38.9471 3.48637C39.227 3.48637 39.7403 3.66138 40.0669 3.87138ZM7.23497 13.444C8.69693 14.599 8.65027 16.8215 7.14165 17.7841C6.41067 18.2566 5.78856 18.2916 5.05758 17.8716C3.54896 17.0316 3.36233 14.599 4.73097 13.514C5.50861 12.9015 6.50399 12.884 7.23497 13.444ZM73.0854 13.444C74.0341 14.039 74.4074 15.8065 73.8008 16.909C72.6655 19.0266 69.8815 18.3091 69.6482 15.8415C69.4305 13.7415 71.4057 12.3765 73.0854 13.444ZM47.4544 26.9542C52.058 29.9467 56.1018 32.5718 56.4284 32.8168L57.0038 33.2368V44.7869V56.3371L56.4284 56.7571C55.4641 57.4571 39.087 68.0622 38.9626 68.0622C38.9004 68.0622 37.8428 67.3972 36.6141 66.6097C35.3855 65.8047 31.6062 63.3547 28.2312 61.1671C24.8563 58.9621 21.8235 56.9846 21.5124 56.7571L20.9214 56.3371V44.7869V33.2368L21.5124 32.8168C21.8235 32.5893 24.8563 30.6117 28.2312 28.4067C31.6062 26.2192 35.3544 23.7866 36.5519 22.9816C37.7495 22.1941 38.8071 21.5291 38.9004 21.5291C38.9937 21.5116 42.8353 23.9616 47.4544 26.9542ZM6.61286 42.6519C6.8306 42.8269 7.17276 43.3344 7.37494 43.8069C7.70155 44.5419 7.7171 44.7169 7.56158 45.3119C7.18831 46.7294 6.02185 47.6045 4.87095 47.3244C4.23328 47.1669 3.40899 46.2919 3.19125 45.5569C2.69356 43.8594 4.0311 42.0219 5.60193 42.2494C5.94409 42.3019 6.39512 42.4944 6.61286 42.6519ZM73.2876 42.3544C74.3296 42.7919 75.0139 44.0869 74.8118 45.2419C74.6718 46.0819 73.9097 47.0094 73.1632 47.2369C71.95 47.6045 70.7058 46.7994 70.3637 45.4344C69.8971 43.5094 71.6545 41.6544 73.2876 42.3544ZM7.35939 71.8773C8.30811 72.6473 8.60361 74.2048 7.9815 75.2373C7.43715 76.1298 6.90836 76.4973 6.11517 76.4973C4.79318 76.5323 3.81336 75.4473 3.81336 73.9773C3.81336 71.9298 5.88188 70.7048 7.35939 71.8773ZM72.8677 71.7023C74.4074 72.5598 74.5318 75.1148 73.0854 76.1298C71.5301 77.1973 69.4772 75.8323 69.6482 73.8198C69.8038 71.9298 71.4057 70.8623 72.8677 71.7023ZM40.1757 81.3624C40.689 81.7124 41.28 82.8849 41.2955 83.5324C41.3111 84.7049 40.0513 86.0875 38.9626 86.0875C37.6873 86.0875 36.4742 84.5299 36.7075 83.1649C37.003 81.3274 38.7915 80.4174 40.1757 81.3624Z" fill="black" fill-opacity="0.65"/>
<path d="M33.0836 35.2143C32.897 35.3368 32.6481 35.5993 32.5237 35.7918C32.2749 36.1943 26.8314 52.207 26.8003 52.627C26.7225 53.782 27.3135 54.587 28.2467 54.587C29.1177 54.587 29.5687 54.0445 30.1753 52.312L30.6729 50.8245L34.0012 50.772L37.3295 50.737L37.7806 52.172C38.3405 53.922 38.8537 54.587 39.6624 54.587C40.7356 54.587 41.451 53.537 41.1555 52.3995C41.0777 52.102 39.818 48.287 38.356 43.9119C35.3854 35.0743 35.3543 34.9868 34.0946 34.9868C33.7368 35.0043 33.2858 35.0918 33.0836 35.2143ZM35.0588 44.0344C35.5721 45.5919 36.0075 46.9569 36.0075 47.0619C36.0075 47.1669 35.261 47.2369 33.9857 47.2369C32.8814 47.2369 31.9638 47.1844 31.9638 47.1144C31.9638 46.9744 33.8146 41.4619 33.939 41.2344C34.0479 41.0244 34.0168 40.9544 35.0588 44.0344Z" fill="black" fill-opacity="0.65"/>
<path d="M45.7593 35.1793C45.0439 35.6518 45.0283 35.8618 45.0283 44.7869C45.0283 53.7821 45.0439 53.9571 45.7904 54.4121C46.397 54.7621 47.2057 54.6221 47.6878 54.0796L48.1389 53.5721V44.8219V36.0718L47.7345 35.5293C47.4079 35.0743 47.2213 34.9868 46.6925 34.9868C46.3348 34.9868 45.9148 35.0743 45.7593 35.1793Z" fill="black" fill-opacity="0.65"/>
</g>
<defs>
<clipPath id="clip0_1241_1468">
<rect width="78" height="89.5" fill="white"/>
</clipPath>
</defs>
</svg>

<svg xmlns="http://www.w3.org/2000/svg" width="78" height="90" fill="none"><g fill="#000" fill-opacity=".65" clip-path="url(#a)"><path d="M37.454.231c-3.157 1.155-4.728 4.988-3.406 8.278.513 1.26 1.617 2.52 2.66 3.045l.7.35v3.273l-.016 3.272-3.655 2.363c-2.022 1.295-3.748 2.38-3.842 2.415-.108.017-1.197-1.925-2.426-4.323-1.229-2.415-2.364-4.515-2.535-4.69-.296-.298-.809-.315-7.03-.367l-6.703-.053-.296-.787c-.155-.438-.606-1.173-1.01-1.628-2.644-3.045-7.077-2.188-8.741 1.697-.529 1.208-.591 3.308-.14 4.62.466 1.4 1.586 2.748 2.83 3.396.825.42 1.182.507 2.225.507 1.104 0 1.368-.07 2.286-.577a5.933 5.933 0 0 0 2.597-2.923l.327-.787h11.789l1.975 3.867c1.135 2.188 1.928 3.92 1.85 4.008-.077.087-1.912 1.295-4.074 2.695l-3.92 2.555h-6.672l-1.213-2.415c-1.337-2.678-1.975-3.535-2.597-3.535-.918 0-1.649.822-1.649 1.855 0 .577 3.235 6.86 3.718 7.227.326.228.98.298 3.857.333l3.468.052v9.083h-7.264l-.295-.753c-.7-1.75-2.566-3.29-4.339-3.535-2.317-.332-4.681 1.33-5.63 3.955-.373 1.033-.373 3.133 0 4.165.949 2.626 3.313 4.288 5.63 3.956 1.773-.245 3.64-1.786 4.34-3.553l.295-.735h7.263v9.1l-3.22.018c-2.084 0-3.437.07-3.779.21-.498.192-.715.542-2.302 3.622-1.555 3.01-1.757 3.483-1.68 4.025.094.735.856 1.575 1.431 1.575.825 0 1.198-.437 2.458-2.922.684-1.33 1.337-2.555 1.462-2.73.218-.263.575-.298 3.468-.298h3.25l3.92 2.555c2.162 1.4 3.997 2.608 4.075 2.695.077.088-.716 1.82-1.851 4.008l-1.975 3.867H11.279l-.327-.787c-1.166-2.783-3.888-4.148-6.532-3.238-.98.333-1.26.525-2.084 1.453C1.045 71.142.64 72.297.734 74.275c.078 1.627.42 2.607 1.384 3.832 1.478 1.89 4.215 2.45 6.33 1.295.949-.507 2.084-1.837 2.457-2.835l.296-.787 6.703-.053c6.221-.052 6.735-.07 7.03-.367.171-.175 1.306-2.275 2.535-4.69 1.229-2.398 2.317-4.34 2.426-4.323.094.035 1.82 1.12 3.842 2.415l3.655 2.363.015 3.272v3.273l-.7.35c-.373.192-1.026.7-1.446 1.137-2.737 2.888-1.975 8.05 1.447 9.853.793.42 1.135.49 2.255.49 1.104 0 1.462-.07 2.224-.472 3.452-1.82 4.23-6.966 1.477-9.87-.42-.438-1.073-.946-1.446-1.138l-.7-.35v-3.273l.015-3.272 3.67-2.363c2.023-1.295 3.75-2.38 3.842-2.415.094-.017 1.182 1.925 2.411 4.323 1.229 2.415 2.364 4.515 2.535 4.69.296.297.809.315 7.03.367l6.719.053.187.577c.466 1.435 1.912 2.923 3.359 3.43.949.35 2.52.263 3.561-.175 1.105-.472 2.38-1.802 2.909-3.062.544-1.26.606-3.325.17-4.655-.372-1.12-1.321-2.433-2.192-3.045-2.644-1.873-6.299-.718-7.667 2.45l-.436.962H54.857l-1.975-3.867c-1.12-2.17-1.928-3.92-1.85-4.008.077-.07 1.913-1.295 4.074-2.695l3.95-2.555 3.282.035 3.282.053 1.353 2.625c1.54 2.957 1.944 3.412 2.909 3.132.668-.192 1.181-.927 1.166-1.697-.016-.648-2.753-6.178-3.5-7.035l-.435-.525-3.5-.053-3.499-.052v-9.083h7.264l.295.735c.7 1.767 2.566 3.308 4.34 3.553 1.726.244 3.918-.858 4.914-2.468.575-.945 1.073-2.608 1.073-3.57 0-.963-.498-2.625-1.073-3.57-.996-1.61-3.188-2.713-4.915-2.468-1.773.245-3.64 1.785-4.339 3.535l-.296.753h-7.263v-9.1l3.235-.018c2.069 0 3.422-.07 3.764-.21.482-.192.716-.56 2.302-3.622 1.524-2.975 1.742-3.483 1.68-4.008-.171-1.207-1.291-1.89-2.209-1.365-.326.193-.809.963-1.68 2.695-.684 1.33-1.337 2.555-1.462 2.713-.217.28-.575.315-3.468.315h-3.235l-3.935-2.555c-2.161-1.4-3.997-2.625-4.074-2.695-.078-.088.73-1.838 1.85-4.008l1.976-3.867H66.63l.436.962c1.368 3.168 5.023 4.323 7.667 2.45.87-.612 1.82-1.925 2.193-3.045.435-1.33.373-3.395-.171-4.655-.56-1.295-1.773-2.572-2.877-3.045-1.12-.473-2.784-.525-3.78-.123-1.415.578-2.706 1.943-3.172 3.36l-.187.578-6.719.053c-6.221.052-6.734.07-7.03.367-.17.175-1.306 2.275-2.535 4.69-1.229 2.398-2.317 4.34-2.41 4.323-.094-.035-1.82-1.12-3.842-2.415l-3.67-2.363-.016-3.255v-3.273l.84-.454c1.026-.578 2.006-1.733 2.55-3.046.84-2.065.42-4.76-1.026-6.492C41.544.319 39.196-.416 37.454.23Zm2.613 3.64c.622.385 1.228 1.47 1.228 2.17 0 .175-.14.665-.31 1.068-.918 2.275-3.858 1.802-4.277-.7-.234-1.348.964-2.905 2.24-2.923.279 0 .792.175 1.119.385ZM7.235 13.444c1.462 1.155 1.415 3.377-.093 4.34-.731.473-1.353.508-2.084.088-1.509-.84-1.696-3.273-.327-4.358.778-.612 1.773-.63 2.504-.07Zm65.85 0c.95.595 1.322 2.362.716 3.465-1.136 2.118-3.92 1.4-4.153-1.067-.218-2.1 1.758-3.466 3.437-2.398Zm-25.63 13.51c4.603 2.993 8.647 5.618 8.973 5.863l.576.42v23.1l-.576.42c-.964.7-17.341 11.305-17.465 11.305-.063 0-1.12-.665-2.349-1.452-1.228-.805-5.008-3.255-8.383-5.443-3.375-2.205-6.408-4.182-6.719-4.41l-.59-.42v-23.1l.59-.42c.311-.228 3.344-2.205 6.72-4.41 3.374-2.188 7.122-4.62 8.32-5.425 1.197-.788 2.255-1.453 2.348-1.453.094-.017 3.935 2.433 8.554 5.425ZM6.612 42.652c.218.175.56.682.762 1.155.327.735.342.91.187 1.505-.374 1.417-1.54 2.293-2.691 2.012-.638-.157-1.462-1.032-1.68-1.767-.497-1.698.84-3.535 2.41-3.308.343.053.794.245 1.012.403Zm66.675-.298c1.042.438 1.726 1.733 1.524 2.888-.14.84-.902 1.767-1.649 1.995-1.213.367-2.457-.438-2.8-1.803-.466-1.925 1.291-3.78 2.925-3.08ZM7.359 71.877c.95.77 1.245 2.328.622 3.36-.544.893-1.073 1.26-1.866 1.26-1.322.035-2.302-1.05-2.302-2.52 0-2.047 2.069-3.272 3.546-2.1Zm65.509-.175c1.54.858 1.664 3.413.217 4.428-1.555 1.067-3.608-.298-3.437-2.31.156-1.89 1.758-2.958 3.22-2.118Zm-32.692 9.66c.513.35 1.104 1.523 1.12 2.17.015 1.173-1.245 2.556-2.333 2.556-1.276 0-2.489-1.558-2.255-2.923.295-1.838 2.084-2.748 3.468-1.803Z"/><path d="M33.084 35.214a2.327 2.327 0 0 0-.56.578c-.25.402-5.693 16.415-5.724 16.835-.078 1.155.514 1.96 1.447 1.96.87 0 1.322-.543 1.928-2.275l.498-1.487L34 50.772l3.329-.035.45 1.435c.56 1.75 1.074 2.415 1.882 2.415 1.074 0 1.789-1.05 1.494-2.188-.078-.297-1.338-4.112-2.8-8.487-2.97-8.838-3.002-8.925-4.261-8.925-.358.017-.81.105-1.011.227Zm1.975 8.82c.513 1.558.949 2.923.949 3.028 0 .105-.747.175-2.022.175-1.105 0-2.022-.053-2.022-.123 0-.14 1.85-5.652 1.975-5.88.109-.21.078-.28 1.12 2.8ZM45.76 35.18c-.716.472-.732.682-.732 9.607 0 8.995.016 9.17.762 9.625.607.35 1.416.21 1.898-.332l.45-.508v-17.5l-.404-.543c-.326-.455-.513-.542-1.041-.542-.358 0-.778.087-.934.192Z"/></g><defs><clipPath id="a"><path fill="#fff" d="M0 0h78v89.5H0z"/></clipPath></defs></svg>
